icons/svg/icons8/bass_drum.svg

<svg width="26" height="26" viewBox="0 0 26 26" fill="none" xmlns="http://www.w3.org/2000/svg">
<path d="M21.803 3.197L20.104 4.273C22.069 5.2 23.252 6.424 23.252 7.582C23.252 11.148 17.46 12.409 12.5 12.409C6.346 12.409 1.748 9.86 1.748 7.582C1.748 5.298 6.346 2.748 12.5 2.748C14.28 2.748 15.923 2.966 17.369 3.324L18.761 1.891C16.918 1.328 14.784 1 12.5 1C5.595 1 0 3.948 0 7.582C0 11.21 5.595 14.158 12.5 14.158C19.405 14.158 25 12.105 25 7.582C25 5.896 23.785 4.362 21.803 3.197Z" fill="#333333"/>
<path d="M25.8079 0.548011C25.4689 0.0170115 24.7618 -0.111989 24.2608 0.247011L16.4248 6.00201C16.4248 6.00201 15.9938 6.17601 15.6428 5.99901C15.3508 5.85301 15.0118 5.79501 14.6668 5.82601C13.6088 5.91901 12.8288 6.85101 12.9238 7.90901C13.0178 8.96601 13.9468 9.74501 15.0048 9.65101C16.0608 9.55901 16.9779 8.60501 16.7489 7.57001C16.6679 7.20901 16.9868 6.96201 16.9868 6.96201L25.4588 2.09001C25.9898 1.77601 26.1549 1.08301 25.8079 0.548011Z" fill="#333333"/>
<path d="M20 14.863C18.287 15.447 16.237 15.785 14 15.886V25.962C16.237 25.86 18.287 25.522 20 24.938V14.863Z" fill="#333333"/>
<path d="M6 25.032C7.762 25.598 9.806 25.94 12 25.986V15.91C9.806 15.865 7.762 15.523 6 14.958V25.032Z" fill="#333333"/>
<path d="M4 14.161C1.545 12.96 0 11.251 0 9.34799C0 11.816 0 16.684 0 19.418C0 21.321 1.545 23.032 4 24.234V14.161Z" fill="#333333"/>
<path d="M22 13.979V24.054C23.867 22.98 25 21.45 25 19.417C25 17.933 25 12.103 25 9.34698C25 11.378 23.867 12.906 22 13.979Z" fill="#333333"/>
</svg>

<?xml version="1.0" encoding="utf-8"?>
<!-- Generator: Adobe Illustrator 15.0.0, SVG Export Plug-In . SVG Version: 6.00 Build 0)  -->
<!DOCTYPE svg PUBLIC "-//W3C//DTD SVG 1.1//EN" "http://www.w3.org/Graphics/SVG/1.1/DTD/svg11.dtd">
<svg version="1.1" id="Layer_1" xmlns="http://www.w3.org/2000/svg" xmlns:xlink="http://www.w3.org/1999/xlink" x="0px" y="0px"
	 width="26px" height="26px" viewBox="0 0 26 26" enable-background="new 0 0 26 26" xml:space="preserve">
<rect fill="none" width="26" height="26"/>
<path fill="#333333" d="M21.803,3.197l-1.699,1.076c1.965,0.927,3.148,2.151,3.148,3.309c0,3.566-5.792,4.827-10.752,4.827
	c-6.154,0-10.752-2.549-10.752-4.827c0-2.284,4.598-4.834,10.752-4.834c1.78,0,3.423,0.218,4.869,0.576l1.392-1.433
	C16.918,1.328,14.784,1,12.5,1C5.595,1,0,3.948,0,7.582c0,3.628,5.595,6.576,12.5,6.576S25,12.105,25,7.582
	C25,5.896,23.785,4.362,21.803,3.197z"/>
<path fill="#333333" d="M25.808,0.548c-0.339-0.531-1.046-0.66-1.547-0.301l-7.836,5.755c0,0-0.431,0.174-0.782-0.003
	c-0.292-0.146-0.631-0.204-0.976-0.173c-1.058,0.093-1.838,1.025-1.743,2.083c0.094,1.057,1.023,1.836,2.081,1.742
	c1.056-0.092,1.973-1.046,1.744-2.081c-0.081-0.361,0.238-0.608,0.238-0.608l8.472-4.872C25.99,1.776,26.155,1.083,25.808,0.548z"/>
<g>
	<g>
		<path fill="#333333" d="M20,14.863c-1.713,0.584-3.763,0.922-6,1.023v10.076c2.237-0.102,4.287-0.44,6-1.024V14.863z"/>
	</g>
	<g>
		<path fill="#333333" d="M6,25.032c1.762,0.566,3.806,0.908,6,0.954V15.91c-2.194-0.045-4.238-0.387-6-0.952V25.032z"/>
	</g>
	<g>
		<path fill="#333333" d="M4,14.161c-2.455-1.201-4-2.91-4-4.813c0,2.468,0,7.336,0,10.07c0,1.903,1.545,3.614,4,4.816V14.161z"/>
	</g>
	<g>
		<path fill="#333333" d="M22,13.979v10.075c1.867-1.074,3-2.604,3-4.637c0-1.484,0-7.314,0-10.07
			C25,11.378,23.867,12.906,22,13.979z"/>
	</g>
</g>
</svg>
